frontend/web/images/logo.svg

<?xml version="1.0" encoding="UTF-8"?>
<svg width="151px" height="40px" viewBox="0 0 151 40" version="1.1" xmlns="http://www.w3.org/2000/svg" xmlns:xlink="http://www.w3.org/1999/xlink">
    <!-- Generator: Sketch 49.2 (51160) - http://www.bohemiancoding.com/sketch -->
    <title>logo</title>
    <desc>Created with Sketch.</desc>
    <defs></defs>
    <g id="Home" stroke="none" stroke-width="1" fill="none" fill-rule="evenodd">
        <g id="LMbet_Home-1" transform="translate(-50.000000, -30.000000)" fill="#FFFFFF">
            <g id="content" transform="translate(50.000000, 25.000000)">
                <g id="header">
                    <g id="logo" transform="translate(0.000000, 5.000000)">
                        <path d="M63.556,23.386 L67.3,23.386 L67.3,25.816 L61,25.816 L61,13.216 L63.556,13.216 L63.556,23.386 Z M72.25,26.032 C69.694,26.032 68.164,24.43 68.164,21.73 L68.164,17.302 C68.164,14.602 69.694,13 72.25,13 C74.806,13 76.336,14.602 76.336,17.302 L76.336,21.73 C76.336,24.43 74.806,26.032 72.25,26.032 Z M72.25,23.548 C73.204,23.548 73.69,22.918 73.69,21.73 L73.69,17.302 C73.69,16.114 73.204,15.484 72.25,15.484 C71.296,15.484 70.81,16.114 70.81,17.302 L70.81,21.73 C70.81,22.918 71.296,23.548 72.25,23.548 Z M81.934,26.032 C79.378,26.032 77.848,24.43 77.848,21.73 L77.848,17.302 C77.848,14.602 79.378,13 81.934,13 C84.49,13 86.02,14.602 86.02,17.302 L86.02,21.73 C86.02,24.43 84.49,26.032 81.934,26.032 Z M81.934,23.548 C82.888,23.548 83.374,22.918 83.374,21.73 L83.374,17.302 C83.374,16.114 82.888,15.484 81.934,15.484 C80.98,15.484 80.494,16.114 80.494,17.302 L80.494,21.73 C80.494,22.918 80.98,23.548 81.934,23.548 Z M93.4,25.816 L91.114,21.046 L90.412,22.18 L90.412,25.816 L87.892,25.816 L87.892,13.216 L90.412,13.216 L90.412,18.04 L91.06,16.636 L92.824,13.216 L95.74,13.216 L92.536,18.724 L96.28,25.816 L93.4,25.816 Z M109.258,13.216 L111.832,13.216 L111.832,25.816 L109.33,25.816 L109.33,22.72 C109.402,21.19 109.456,19.66 109.528,18.13 L109.438,18.094 L108.304,21.406 L107.674,23.116 L105.154,23.116 L104.524,21.406 L103.39,18.094 L103.3,18.13 C103.354,19.66 103.426,21.19 103.48,22.72 L103.48,25.816 L100.996,25.816 L100.996,13.216 L103.57,13.216 L105.55,17.986 C105.802,18.616 106.234,19.714 106.378,20.182 L106.45,20.182 C106.594,19.714 107.026,18.616 107.278,17.986 L109.258,13.216 Z M115.918,25.816 L115.918,22.072 L112.948,13.216 L115.594,13.216 L116.62,16.708 C116.746,17.122 117.034,18.112 117.16,18.724 L117.232,18.724 C117.376,18.112 117.664,17.122 117.808,16.654 L118.798,13.216 L121.444,13.216 L118.474,22.072 L118.474,25.816 L115.918,25.816 Z M132.352,19.372 C133.288,19.912 133.846,20.92 133.846,22.054 C133.846,24.304 132.298,25.816 130.138,25.816 L126.16,25.816 L126.16,13.216 L130.084,13.216 C132.028,13.216 133.414,14.656 133.414,16.798 C133.414,17.752 133.018,18.76 132.352,19.372 Z M129.634,15.628 L128.716,15.628 L128.716,18.256 L129.724,18.256 C130.444,18.256 130.822,17.788 130.822,16.906 C130.822,16.06 130.462,15.628 129.634,15.628 Z M129.688,23.404 C130.696,23.404 131.218,22.936 131.218,22.036 C131.218,21.118 130.696,20.65 129.742,20.65 L128.716,20.65 L128.716,23.404 L129.688,23.404 Z M138.058,23.386 L142.18,23.386 L142.18,25.816 L135.502,25.816 L135.502,13.216 L142,13.216 L142,15.646 L138.058,15.646 L138.058,18.256 L141.64,18.256 L141.64,20.596 L138.058,20.596 L138.058,23.386 Z M150.64,13.216 L150.64,15.646 L148.174,15.646 L148.174,25.816 L145.546,25.816 L145.546,15.646 L143.08,15.646 L143.08,13.216 L150.64,13.216 Z" id="Look-My-Bet"></path>
                        <path d="M30.3809143,14.0274899 C30.1327246,13.4700755 29.7156521,13.0756622 29.141364,12.8551455 C28.5788393,12.639209 28.0107221,12.6556489 27.4527774,12.9036939 C26.8953149,13.1521729 26.5009498,13.5691489 26.2806742,14.1430996 L21.1044634,27.6275901 C20.8840432,28.2018783 20.8980725,28.7756844 21.1463104,29.3331469 C21.3945001,29.8907059 21.8057872,30.2829015 22.368553,30.4988381 C22.6387751,30.6026362 22.9088043,30.6544629 23.1770015,30.6544629 C23.4791874,30.6544629 23.7790109,30.588655 24.0740616,30.4571839 C24.6315241,30.2092353 25.0260339,29.7921146 25.2465023,29.217489 L25.2465023,29.2175372 L30.4227131,15.7330949 C30.6430851,15.1588067 30.629104,14.5849524 30.3809143,14.0274899 M20,34.3612057 C18.911157,34.3612057 17.8505173,34.23875 16.830423,34.0080609 L20.8350127,23.5758502 C21.0554329,23.0015138 21.0414035,22.4276596 20.7932138,21.870197 C20.5449759,21.3127826 20.1279035,20.9183211 19.5536635,20.6979009 C18.9910906,20.4820125 18.4230699,20.4982114 17.865077,20.7464975 C17.3075662,20.99488 16.9132493,21.411856 16.6929255,21.9858549 L12.7078131,32.3673477 C12.1594141,32.0427438 11.6337708,31.6835244 11.1352219,31.2912324 L16.3008745,17.8345595 C16.5212465,17.2601749 16.507169,16.6863206 16.2589793,16.1290027 C16.0107896,15.5714919 15.5937654,15.1770786 15.019429,14.9566584 C14.4569043,14.7407218 13.8888835,14.7570171 13.3308424,15.0052068 C12.7733799,15.2536375 12.3790148,15.6706617 12.1587392,16.2446124 L7.80751319,27.5799096 C6.4338884,25.3784073 5.63874613,22.7805151 5.63874613,20 C5.63874613,12.0812161 12.0811679,5.63874613 20,5.63874613 C27.9187839,5.63874613 34.3612539,12.0812161 34.3612539,20 C34.3612539,27.9188321 27.9187839,34.3612057 20,34.3612057 Z M40,20 C40,14.6577991 37.9196517,9.63538101 34.1421354,5.85786464 C30.3645708,2.08039649 25.3421527,0 20,0 C14.6577991,0 9.63538101,2.08039649 5.85786464,5.85786464 C2.08039649,9.63538101 0,14.6577991 0,20 C0,25.3422009 2.08039649,30.3646672 5.85786464,34.1420871 C9.63538101,37.9196517 14.6577991,39.9999518 20,39.9999518 C25.3421527,39.9999518 30.3645708,37.9196517 34.1421354,34.1420871 C37.9196517,30.3646672 40,25.3422009 40,20 Z"></path>
                    </g>
                </g>
            </g>
        </g>
    </g>
</svg>

<svg xmlns="http://www.w3.org/2000/svg" width="160" height="40" viewBox="0 0 160 40">
    <g fill="#FFF" fill-rule="evenodd">
        <path d="M63.556 23.386H67.3v2.43H61v-12.6h2.556v10.17zm8.694 2.646c-2.556 0-4.086-1.602-4.086-4.302v-4.428c0-2.7 1.53-4.302 4.086-4.302s4.086 1.602 4.086 4.302v4.428c0 2.7-1.53 4.302-4.086 4.302zm0-2.484c.954 0 1.44-.63 1.44-1.818v-4.428c0-1.188-.486-1.818-1.44-1.818s-1.44.63-1.44 1.818v4.428c0 1.188.486 1.818 1.44 1.818zm9.684 2.484c-2.556 0-4.086-1.602-4.086-4.302v-4.428c0-2.7 1.53-4.302 4.086-4.302s4.086 1.602 4.086 4.302v4.428c0 2.7-1.53 4.302-4.086 4.302zm0-2.484c.954 0 1.44-.63 1.44-1.818v-4.428c0-1.188-.486-1.818-1.44-1.818s-1.44.63-1.44 1.818v4.428c0 1.188.486 1.818 1.44 1.818zM93.4 25.816l-2.286-4.77-.702 1.134v3.636h-2.52v-12.6h2.52v4.824l.648-1.404 1.764-3.42h2.916l-3.204 5.508 3.744 7.092H93.4zm15.858-12.6h2.574v12.6h-2.502V22.72c.072-1.53.126-3.06.198-4.59l-.09-.036-1.134 3.312-.63 1.71h-2.52l-.63-1.71-1.134-3.312-.09.036c.054 1.53.126 3.06.18 4.59v3.096h-2.484v-12.6h2.574l1.98 4.77c.252.63.684 1.728.828 2.196h.072c.144-.468.576-1.566.828-2.196l1.98-4.77zm6.66 12.6v-3.744l-2.97-8.856h2.646l1.026 3.492c.126.414.414 1.404.54 2.016h.072c.144-.612.432-1.602.576-2.07l.99-3.438h2.646l-2.97 8.856v3.744h-2.556zm16.434-6.444c.936.54 1.494 1.548 1.494 2.682 0 2.25-1.548 3.762-3.708 3.762h-3.978v-12.6h3.924c1.944 0 3.33 1.44 3.33 3.582 0 .954-.396 1.962-1.062 2.574zm-2.718-3.744h-.918v2.628h1.008c.72 0 1.098-.468 1.098-1.35 0-.846-.36-1.278-1.188-1.278zm.054 7.776c1.008 0 1.53-.468 1.53-1.368 0-.918-.522-1.386-1.476-1.386h-1.026v2.754h.972zm8.37-.018h4.122v2.43h-6.678v-12.6H142v2.43h-3.942v2.61h3.582v2.34h-3.582v2.79zm12.582-10.17v2.43h-2.466v10.17h-2.628v-10.17h-2.466v-2.43h7.56zm5.426 12.536c-2.233 0-3.653-1.333-3.67-3.67h2.181c.018 1.09.59 1.592 1.507 1.592.97 0 1.437-.57 1.437-1.35 0-2.199-4.883-2.372-4.883-6.025 0-1.8 1.282-3.151 3.428-3.151 2.165 0 3.48 1.333 3.498 3.497h-2.182c-.017-.97-.502-1.437-1.316-1.437-.796 0-1.263.45-1.263 1.143 0 2.112 4.934 2.181 4.934 5.99 0 1.905-1.333 3.411-3.67 3.411zM30.38 14.027a2.157 2.157 0 0 0-1.239-1.172 2.137 2.137 0 0 0-1.688.049 2.158 2.158 0 0 0-1.172 1.24l-5.177 13.484a2.157 2.157 0 0 0 .042 1.705c.249.558.66.95 1.223 1.166.27.104.54.155.808.155.302 0 .602-.065.897-.197a2.156 2.156 0 0 0 1.173-1.24l5.176-13.484a2.157 2.157 0 0 0-.042-1.706M20 34.361c-1.089 0-2.15-.122-3.17-.353l4.005-10.432a2.157 2.157 0 0 0-.042-1.706 2.157 2.157 0 0 0-1.24-1.172 2.137 2.137 0 0 0-1.688.048 2.157 2.157 0 0 0-1.172 1.24l-3.985 10.381a14.422 14.422 0 0 1-1.573-1.076l5.166-13.456a2.157 2.157 0 0 0-.042-1.706 2.157 2.157 0 0 0-1.24-1.172 2.137 2.137 0 0 0-1.688.048 2.158 2.158 0 0 0-1.172 1.24L7.808 27.58A14.274 14.274 0 0 1 5.638 20c0-7.919 6.443-14.361 14.362-14.361 7.919 0 14.361 6.442 14.361 14.361 0 7.919-6.442 14.361-14.361 14.361zM40 20c0-5.342-2.08-10.365-5.858-14.142A19.87 19.87 0 0 0 20 0 19.87 19.87 0 0 0 5.858 5.858 19.87 19.87 0 0 0 0 20c0 5.342 2.08 10.365 5.858 14.142A19.869 19.869 0 0 0 20 40c5.342 0 10.365-2.08 14.142-5.858A19.869 19.869 0 0 0 40 20z"/>
    </g>
</svg>
